X:1
T:Balm in Secret Prayer
T:Balm in Secret Prayer
T:John Robson Sweney
T:Frances Jane (Fanny) Crosby, 1900
T:Public Domain Courtesy of the Cyber Hymnal™
C:John Robson Sweney
Z:Public Domain
Z:Courtesy of the Cyber Hymnal™
%%score ( 1 2 ) ( 3 4 )
L:1/8
Q:1/4=110
M:4/4
K:Ab
V:1 treble 
V:2 treble 
V:3 bass 
V:4 bass 
V:1
 [CE]2 | [CE]2 [EA]2 [EA]2 [EB]2 | [Ec]3 [Ec] [Ec]2 [Ec]2 | [Ed]3 [Ed] [Ec]2 [EA]2 | %4
w: 1.~Pray|on, pray on, O|trust- ing heart, Let|not thy cour- age|
w: 2.~What|tho’ thy prayers thro’|ma- ny tears May|reach His throne on|
w: 3.~Per-|haps in some de-|spond- ing hour, When|hope has well nigh|
w: 4.~Pray|on, pray on, O|wear- y not, What-|e’er thy tri- al|
 [EB]6 ([Ec][DB]) | [CA]2 [CE]2 ([A,C][CE]) (AB) | [Ec]2 [Ed]2 [Ee]2 [Fd]2 | %7
w: fail; But *|take thy Sav- * ior *|at His word, And|
w: high; He *|knows the an- * guish *|of thy heart, And|
w: past, The *|light will burst * up- *|on thy soul, And|
w: be; But *|lean thy faith * on *|Him Who said, “It|
 [Ec]3 [EA] [EB]2 [DG]2 | [CA]6 ||"^Refrain" [Ec][Ed] | [Ee]3 [Ec] [EA]2 [Ac]2 | B6 [GB][Ac] | %12
w: know thou shalt pre-|vail.||||
w: will not pass thee|by.|Tho’ the|cross is hard to|bear, There is|
w: joy be thine at|last.||||
w: shall be well with|thee.”||||
 [Bd]3 [EG] [EA]2 [EB]2 | c6 [Ec][DB] | [CA]4- [CA][CA][EG][DF] | [CE]4- [CE]CEA | %16
w: ||||
w: balm in se- cret|prayer; Go and|tell * thy sor- rows|there, * And leave it|
w: ||||
w: ||||
 ([DB]3 [FA] [Ec]2) [DB]2 | [DB]2 [CA]4 |] %18
w: ||
w: all * * with|Je- sus.|
w: ||
w: ||
V:2
 x2 | x8 | x8 | x8 | x8 | x6 E2 | x8 | x8 | x6 || x2 | x8 | (G2 GG G2) x2 | x8 | (E2 EE E2) x2 | %14
 x8 | x5 CEA | x8 | x6 |] %18
V:3
 [A,,A,]2 | [A,,A,]2 [C,A,]2 [C,A,]2 [E,G,]2 | A,3 A, A,2 A,2 | [G,B,]3 [G,B,] A,2 [C,A,]2 | %4
w: ~|~ ~ ~ ~|~ ~ ~ ~|~ ~ ~ ~|
 [E,G,]6 E,2 | [A,,E,]2 [A,,A,]2 (E,A,) ([C,A,][E,G,]) | A,2 [B,,G,]2 [C,A,]2 [D,A,]2 | %7
w: ~ ~|~ ~ ~ * ~ *|~ ~ ~ ~|
 [E,A,]3 [E,C] [E,G,]2 [E,B,]2 | [A,,A,]6 || A,[A,B,] | [A,C]3 A, [A,C]2 [A,E]2 | %11
w: ~ ~ ~ ~|~|~ ~|~ ~ ~ ~|
 [E,E]2 [E,E][E,E] [E,E]2 [E,E][E,E] | [E,E]3 [D,B,] [C,A,]2 [B,,G,]2 | %13
w: ~ hard to bear ~ ~|~ ~ ~ ~|
 [A,,A,]2 [A,,A,][A,,A,] [A,,A,]2 z2 | [A,,E,]2 [A,,E,]2 [A,,E,]2 [A,,A,]2 | %15
w: se- cret prayer *||
 [A,,A,]2 [A,,A,]2 [A,,A,]C,E,A, | ([D,F,]3 [=D,B,] [E,A,]2) [E,G,]2 | [A,,E,]2 [A,,E,]4 |] %18
w: |||
V:4
 x2 | x8 | A,3 A, A,2 A,2 | x4 A,2 x2 | x6 E,2 | x4 A,,2 x2 | A,2 x6 | x8 | x6 || A, x | x3 A, x4 | %11
 x8 | x8 | x8 | x8 | x5 C,E,A, | x8 | x6 |] %18

